!!!OTL: 382. Staendchen.
!!!COM: F. L. Aberdar v. Seckendorff
!!!ODT: 1785
!!!ARE: Europa, Mitteleuropa, Deutschland
!!!SCT: B0382
!!!TXL: @@DE
!!!YEM: Copyright 1995, estate of Helmut Schaffrath.
**kern	**text
*ICvox	*
*Ivox	*
*M4/4	*
*clefG2	*
*met(c)	*
*k[b-]	*
*F:	*
=1	=1
!LO:TX:a:t=Langſam.	!
{8fL	Wenn
8aJ	.
8a/L	die
8ccJ	.
4.cc	Nacht
8dd	mit
=2	=2
8ccL	ſü-
8b-J	.
8gL	-ßer
8b-J	.
(4b-/	Ruh'
4a)}	.
=3	=3
{4.cc	längſt
8a	die
8ddL	Mü-
8cc	.
8b-J	.
8a	-den
=4	=4
4a	loh-
4g	-net,
2r}	.
=5	=5
{8fL	Geh'
8aJ	.
8a/L	ich
8ccJ	.
4.cc	auf
8dd	das
=6	=6
8ccL	Hütt-
8b-J	.
8gL	-chen
8b-J	.
(4b-/	ʒu,
4a)}	.
=7	=7
{4.cc	wo
8a	mein
8ddL	Mäd-
8cc	.
8b-J	.
8a	-chen
=8	=8
4a	wohnet,
4g	.
2r}	.
=9	=9
{4.g	Wünſch'
8b-/	ich
4.a	noch
8cc	um
=10	=10
8gL	Mit-
8aJ	.
8b-L	-ter-
8ccJ	.
(4b-/	-nacht
4a)}	.
=11	=11
{4.dd	ei-
8dd	-ne
(4cc	ſü-
!LO:TUP:a	!
12ddL)	.
12ccJ	.
12b-	-ße,
=12	=12
4a	gu-
4g	-te
4f	Nacht.
4r}	.
==	==
!!!AGN: Liebes - Lied, Liebes - Lust
!!!GTL: Liebeslieder - Liebeslust
!!!ONB: ESAC (Essen Associative Code) Database: BOEHME
!!!AMT: simple quadruple
!!!AIN: vox
!!!EED: Helmut Schaffrath
!!!EEV: 1.0
!!@@COMMENT:"Text von Heinr. Wilh. v. Stamford. Ʒuerſt im "Göttinger Muſenalmanach" 1777. S. 112.
!!Daß die erſte Mel. von L. A. v. Seckendorf ſei, hat derſelbe 1815 an Silcher erklärt. (H. Hoffm.
!!Volkstb. Lieder Nr. 929.
!!* Fernen - entfernen, in die Ferne ſchaffen (ſ. Grimm, Wörterb. S. 1513.)"
!!@@END:
!!!Text: H. W. von Stamford
!!!URL-scan: https://archive.org/details/BoehmeVtLieder1895/page/n319/mode/2up
!!!ENC: Anna Maria Matuszewska
!!!EEV: 2024/08/07
*-	*-
